X: 5
T: DAVY, DAVY, NICK-NOCK
S: "COUNTRY DANCES OF TODAY 2", CDSS, May Gadd ed., 1951 p.13
R: reel
Z: 2010 John Chambers <jc:trillian.mit.edu>
M: 2/4
L: 1/16
K: G
"A"|: "G"GFGA B2B2 | GFGA B2B2 | "D"dcBc "D7"A2A2 | "D"dcBc "D7"A2A2 | "G"GFGA B2B2 |
GFGA B2B2 | "(C)"dcBc "D7"AcBA | "G"G2B2 G4 "B":: "G"d2dc B2d2 | g2g2 d4 | "D7(C)"dcBc "(D7)"A2A2 |
dcBc A2A2 | "G"d2dc "(Bm)"B2d2 | "(Em)"g2g2 "D"d4 | "C"dcBc "D7"AcBA | "G"G2B2 G2z2 :|


%%sep 5 1 500

%%sep 1 1 500

